X: 2
T: Denis Murphy's Slide
R: slide, jig
S: Fiddle Hell Online 2021-11-__ Matt Cranitch workshop
Z: 2021 John Chambers <jc:trillian.mit.edu>
M: 12/8
L: 1/8
K: G
|:\
(vB |\
A2)(D FED) F2A A2(uf | gfe) f2d e2(d BdB) |\
vA2(D FED) F2A A2f | va2(f efe) d3 d2 :|
|: uA |\
vd2(e f2)(f g)fe {fa}f3 | vguf(ve f2)d e2(d BAB) |\
vd2(e f2)(f g)fe (f2g) | a2(f efe) d3 d2 :|


